static/icons/ts.svg

<svg width="48" height="48" viewBox="0 0 48 48" fill="none" xmlns="http://www.w3.org/2000/svg">
<path d="M0 0H48V48H0V0Z" fill="#017ACB"/>
<path d="M23.0474 17.7749H25.3499V21.7499H19.1249V39.4349L18.9599 39.4799C18.7349 39.5399 15.7724 39.5399 15.1349 39.4724L14.6249 39.4274V21.7499H8.3999V17.7749L10.3724 17.7524C11.4524 17.7374 14.2274 17.7374 16.5374 17.7524C18.8474 17.7674 21.7724 17.7749 23.0474 17.7749ZM40.62 37.5599C39.705 38.5274 38.7225 39.0674 37.0875 39.5099C36.375 39.7049 36.2549 39.7124 34.6499 39.7049C33.0449 39.6974 32.9174 39.6974 32.1374 39.4949C30.1199 38.9774 28.4924 37.9649 27.3824 36.5324C27.0674 36.1274 26.5499 35.2874 26.5499 35.1824C26.5499 35.1524 26.6249 35.0849 26.7224 35.0399C26.8199 34.9949 27.0224 34.8674 27.1874 34.7699C27.3524 34.6724 27.6524 34.4924 27.8549 34.3874C28.0574 34.2824 28.6424 33.9374 29.1524 33.6299C29.6624 33.3224 30.1274 33.0749 30.1799 33.0749C30.2324 33.0749 30.3299 33.1799 30.4049 33.3074C30.8549 34.0649 31.9049 35.0324 32.6474 35.3624C33.1049 35.5574 34.1174 35.7749 34.6049 35.7749C35.0549 35.7749 35.8799 35.5799 36.3225 35.3774C36.795 35.1599 37.035 34.9424 37.32 34.5074C37.515 34.1999 37.5375 34.1174 37.53 33.5324C37.53 32.9924 37.5 32.8424 37.35 32.5949C36.93 31.9049 36.36 31.5449 34.0499 30.5249C31.6649 29.4674 30.5924 28.8374 29.7224 27.9899C29.0774 27.3599 28.9499 27.1874 28.5449 26.3999C28.0199 25.3874 27.9524 25.0574 27.9449 23.5499C27.9374 22.4924 27.9599 22.1474 28.0724 21.7874C28.2299 21.2474 28.7399 20.2049 28.9724 19.9424C29.4524 19.3799 29.6249 19.2074 29.9624 18.9299C30.9824 18.0899 32.5724 17.5349 34.0949 17.4824C34.2674 17.4824 34.8374 17.5124 35.3699 17.5499C36.9 17.6774 37.9425 18.0524 38.9475 18.8549C39.705 19.4549 40.8525 20.8649 40.74 21.0524C40.665 21.1649 37.6725 23.1599 37.4775 23.2199C37.3575 23.2574 37.275 23.2124 37.11 23.0174C36.0899 21.7949 35.6775 21.5324 34.6874 21.4724C33.9824 21.4274 33.6074 21.5099 33.1349 21.8249C32.6399 22.1549 32.3999 22.6574 32.3999 23.3549C32.4074 24.3749 32.7974 24.8549 34.2374 25.5674C35.1674 26.0249 35.9624 26.3999 36.0224 26.3999C36.1124 26.3999 38.04 27.3599 38.5425 27.6599C40.8825 29.0324 41.835 30.4424 42.0825 32.8724C42.2625 34.7024 41.745 36.3749 40.62 37.5599Z" fill="white"/>
</svg>

<svg width="48" height="48" fill="none" xmlns="http://www.w3.org/2000/svg"><path d="M0 0h48v48H0V0Z" fill="#017ACB"/><path d="M23.047 17.775h2.303v3.975h-6.225v17.685l-.165.045c-.225.06-3.188.06-3.825-.008l-.51-.045V21.75H8.4v-3.975l1.972-.023c1.08-.015 3.855-.015 6.165 0s5.235.023 6.51.023ZM40.62 37.56c-.915.967-1.898 1.507-3.532 1.95-.713.195-.833.202-2.438.195-1.605-.008-1.733-.008-2.513-.21-2.017-.518-3.645-1.53-4.755-2.963-.315-.405-.832-1.245-.832-1.35 0-.03.075-.097.172-.142.098-.045.3-.173.465-.27.165-.098.465-.278.668-.383.202-.105.787-.45 1.297-.757.51-.308.975-.555 1.028-.555.052 0 .15.105.225.232.45.758 1.5 1.725 2.242 2.055.458.195 1.47.413 1.958.413.45 0 1.275-.195 1.718-.398.472-.217.712-.435.997-.87.195-.307.218-.39.21-.975 0-.54-.03-.69-.18-.937-.42-.69-.99-1.05-3.3-2.07-2.385-1.058-3.458-1.688-4.328-2.535-.645-.63-.772-.803-1.177-1.59-.525-1.013-.593-1.343-.6-2.85-.008-1.058.015-1.403.127-1.763.158-.54.668-1.582.9-1.845.48-.562.653-.735.99-1.012 1.02-.84 2.61-1.395 4.133-1.448.172 0 .742.03 1.275.068 1.53.127 2.573.502 3.578 1.305.757.6 1.904 2.01 1.792 2.197-.075.113-3.068 2.108-3.263 2.168-.12.037-.202-.008-.367-.203-1.02-1.222-1.432-1.485-2.423-1.545-.705-.045-1.08.038-1.552.353-.495.33-.735.832-.735 1.53.007 1.02.397 1.5 1.837 2.212.93.458 1.725.833 1.785.833.09 0 2.018.96 2.52 1.26 2.34 1.372 3.293 2.782 3.54 5.212.18 1.83-.337 3.503-1.462 4.688Z" fill="#fff"/></svg>
